X: 40
M:6/8
L:1/8
K:G
cAB c2A :: gdB de/f/g/f/ | gdB d2B |
gdB de/f/g/e/ | cAB cd/c/B/A/ | gdB de/f/g/e/ |
gde dcB | cec d/c/B/c/d/B/ | cAB c2A :|


